X:1
T:Dear Sabbath Home
T:Dear Sabbath Home
T:William Howard Doane
T:Frances Jane (Fanny) Crosby, 1895
T:Public Domain Courtesy of the Cyber Hymnal™
T:Public Domain Courtesy of the Cyber Hymnal™
C:William Howard Doane
Z:Public Domain
Z:Courtesy of the Cyber Hymnal™
%%score ( 1 2 ) ( 3 4 )
L:1/8
Q:1/4=100
M:4/4
K:C
V:1 treble 
V:2 treble 
V:3 bass 
V:4 bass 
V:1
 [CE]2 [EG]>[FA] [EG]4 | [FA]2 [Fc]>[Fd] [Ec]4 | [EG]2 [CE][EG] [Gc][Gd] [Ge]2 | %3
w: 1.~Hark, hark the song,|glid- ing a- long,|Borne on the sum- mer breeze,|
w: 2.~Green sha- dy bowers,|sweet blush- ing flowers,|Come with the sum- mer time,|
w: 3.~Hark, hark the song,|float- ing a- long,|Borne to the sun- ny land|
 [Ge]2 [Gd]>[G^c] [Gd]4 | [CE]2 [EG]>[FA] [EG]4 | [FA]2 [Fc]>[Fd] [Ec]4 | %6
w: far, far a- way;|Dear Sab- bath home,|once more we come,|
w: bloom- ing a- new;|Morn’s gen- tle ray,|gold- en and gay,|
w: fade- less and fair;|Sav- ior and King,|glad- ly we bring|
 [EG]2 [CE][EG] [Gc][Gd] [Ge]2 | [Fd]2 [Ec][DB] [Ec]4 | [DB]2 [DB][DB] [Dd]2 [Dd]2 | %9
w: Hail- ing with glad de- light|this hap- py day;|Eyes beam- ing bright- ly,|
w: Shines on the lil- y- bells|spark- ling with dew;|Beau- ty is call- ing,|
w: Praise for Thy pre- cious love,|Thy ten- der care;|Ga- thered be- fore Thee,|
 [FA]2 [FA][FA] [Gc]2 [Gc]2 | [GB]2 [Fd]2 [Ec]2 [Ge]2 | [^Fe][Fd][Fc][FA] z x6 || %12
w: hearts bound- ing light- ly,|Now we sing our|mer- ry, mer- ry|
w: mu- sic is fall- ing,|Now a- gain earth|wakes her joy- ful|
w: young hearts a- dore Thee,|Sav- ior, hear, O|hear our hap- py|
"^Refrain" [CE]2 [EG]>[FA] (z [EG][EG][EG]) | [FA]2 [Fc]>[Fd] (z [Ec][Ec][Ec]) | %14
w: lay. * * * * *||
w: lay. Dear Sab- * * *|* bath home, * * *|
w: lay. * * * * *||
 [EG]2 [CE][EG] [Gc][Gd] [Ge]2 | [Fd]2 [Ec][DB] [Ec]4 |] %16
w: ||
w: * once more we come, Hail-|ing with glad de-|
w: ||
V:2
 x8 | x8 | x8 | x8 | x8 | x8 | x8 | x8 | x8 | x8 | x8 | x4 G4 =FED || x4 [EG]4 | x4 [Ec]4 | x8 | %15
 x8 |] %16
V:3
 [C,G,]2 [C,C]>[C,C] [C,C]4 | [F,C]2 [F,A,]>[F,A,] [C,G,]4 | %2
 [C,C]2 [C,G,][C,C] [E,C][D,B,] [C,C]2 | [G,C]2 [G,B,]>[G,^A,] [G,B,]4 | %4
 [C,G,]2 [C,C]>[C,C] [C,C]4 | [F,C]2 [F,A,]>[F,A,] [C,G,]4 | [C,C]2 [C,G,][C,C] [E,C][G,B,] C2 | %7
 [F,A,]2 G,[G,,G,] [C,G,]4 | G,2 G,G, [^F,A,]2 [F,A,]2 | [=F,C]2 [F,C][F,C] [F,C]2 [F,C]2 | %10
 [D,G,]2 [B,,G,]2 [C,G,]2 [C,C]2 | [D,C][D,A,][D,A,][D,C] [G,,A,]4 x3 || %12
 [C,G,]2 [C,C]>[C,C] [C,C]4 | [F,C]2 [F,A,]>[F,A,] [C,G,]4 | [C,C]2 [C,G,][C,C] [E,C][G,B,] C2 | %15
 [F,A,]2 G,[G,,G,] [C,G,]4 |] %16
V:4
 x8 | x8 | x8 | x8 | x8 | x8 | x6 C2 | x2 G, x5 | G,2 G,G, x4 | x8 | x8 | x11 || x8 | x8 | x6 C2 | %15
 x2 G, x5 |] %16

